flaticon/grooming/nail-polish-2.svg

<svg xmlns="http://www.w3.org/2000/svg" width="32" height="32" viewBox="0 0 24 24">
    <path d="M20.070312 8.179688L20.070312 6.207031C20.070312 5.957031 19.902344 5.792969 19.65625 5.792969L14.691406 5.792969C14.441406 5.792969 14.277344 5.957031 14.277344 6.207031L14.277344 8.179688C12.628906 8.566406 11.378906 9.300781 11.378906 10.34375L11.378906 21.515625C11.378906 23.132812 14.359375 24 17.171875 24 19.984375 24 22.964844 23.132812 22.964844 21.515625L22.964844 10.34375C22.964844 9.300781 21.714844 8.566406 20.070312 8.179688zM15.101562 6.621094L19.242188 6.621094 19.242188 8.019531C19.109375 8 18.972656 7.980469 18.835938 7.964844 18.355469 7.898438 17.859375 7.867188 17.359375 7.863281 17.296875 7.863281 17.234375 7.863281 17.171875 7.863281 17.109375 7.863281 17.046875 7.863281 16.984375 7.863281 16.484375 7.867188 15.988281 7.898438 15.507812 7.964844 15.371094 7.980469 15.238281 8 15.101562 8.019531zM12.207031 18.621094L16.34375 18.621094C16.59375 18.621094 16.757812 18.457031 16.757812 18.207031 16.757812 17.957031 16.59375 17.792969 16.34375 17.792969L12.207031 17.792969 12.207031 16.550781 15.515625 16.550781C15.765625 16.550781 15.929688 16.386719 15.929688 16.136719 15.929688 15.890625 15.765625 15.722656 15.515625 15.722656L12.207031 15.722656 12.207031 14.484375 14.277344 14.484375C14.523438 14.484375 14.691406 14.316406 14.691406 14.070312 14.691406 13.820312 14.523438 13.65625 14.277344 13.65625L12.207031 13.65625 12.207031 12 18.746094 12C18.785156 12 18.828125 12.042969 18.828125 12.082031L18.828125 20.191406C18.828125 20.234375 18.785156 20.277344 18.746094 20.277344L12.207031 20.277344zM22.136719 21.515625C22.136719 22.21875 20.234375 23.171875 17.171875 23.171875 14.109375 23.171875 12.207031 22.21875 12.207031 21.515625L12.207031 21.101562 18.746094 21.101562C19.242188 21.101562 19.65625 20.691406 19.65625 20.191406L19.65625 12.082031C19.65625 11.585938 19.242188 11.171875 18.746094 11.171875L12.207031 11.171875 12.207031 10.34375C12.207031 9.867188 13.082031 9.277344 14.601562 8.945312 14.65625 8.957031 14.714844 8.957031 14.773438 8.9375 16.261719 8.648438 18.082031 8.648438 19.574219 8.9375 19.613281 8.9375 19.613281 8.9375 19.65625 8.9375 19.667969 8.9375 19.679688 8.9375 19.695312 8.933594 21.242188 9.265625 22.136719 9.863281 22.136719 10.34375zM7.199219 14.484375L6.414062 14.484375 6.414062 12.828125C6.414062 12.578125 6.25 12.414062 6 12.414062L4.757812 12.414062 4.757812 3.308594 4.964844 3.308594C5.296875 3.308594 5.542969 3.101562 5.628906 2.773438L5.957031.785156C5.957031.578125 5.917969.414062 5.792969.25 5.667969.0820312 5.503906 0 5.296875 0L3.394531 0C3.226562 0 3.019531.0820312 2.898438.25 2.773438.414062 2.730469.578125 2.730469.785156L3.0625 2.773438C3.101562 3.0625 3.394531 3.308594 3.722656 3.308594L3.929688 3.308594 3.929688 12.414062 2.691406 12.414062C2.441406 12.414062 2.277344 12.578125 2.277344 12.828125L2.277344 14.484375 1.40625 14.484375C1.324219 14.484375 1.160156 14.523438 1.117188 14.605469 1.074219 14.691406 1.035156 14.8125 1.035156 14.9375L1.984375 22.71875C2.109375 23.460938 2.691406 24 3.433594 24L5.339844 24C6.082031 24 6.703125 23.460938 6.703125 22.71875L7.574219 14.9375C7.613281 14.8125 7.574219 14.691406 7.488281 14.605469 7.449219 14.523438 7.324219 14.484375 7.199219 14.484375zM3.601562.828125L5.089844.828125 4.800781 2.484375 3.847656 2.484375zM3.101562 13.242188L5.585938 13.242188 5.585938 14.484375 3.101562 14.484375zM5.957031 22.632812C5.917969 22.925781 5.667969 23.171875 5.339844 23.171875L3.433594 23.171875C3.101562 23.171875 2.855469 22.925781 2.8125 22.632812L1.902344 15.308594 6.785156 15.308594zM5.957031 22.632812"/>
</svg>

<svg xmlns="http://www.w3.org/2000/svg" width="32" height="32" viewBox="0 0 24 24">
    <path d="M20.07 8.18V6.207c0-.25-.168-.414-.414-.414h-4.965c-.25 0-.414.164-.414.414V8.18c-1.648.386-2.898 1.12-2.898 2.164v11.172c0 1.617 2.98 2.484 5.793 2.484 2.812 0 5.793-.867 5.793-2.484V10.344c0-1.043-1.25-1.778-2.895-2.164zM15.102 6.62h4.14V8.02c-.133-.02-.27-.04-.406-.055-.48-.067-.977-.098-1.477-.102h-.375c-.5.004-.996.035-1.476.102-.137.015-.27.035-.406.055zm-2.895 12h4.137c.25 0 .414-.164.414-.414 0-.25-.164-.414-.414-.414h-4.137v-1.242h3.309c.25 0 .414-.164.414-.414 0-.246-.164-.414-.414-.414h-3.309v-1.239h2.07a.394.394 0 0 0 .414-.414c0-.25-.168-.414-.414-.414h-2.07V12h6.54c.038 0 .081.043.081.082v8.11c0 .042-.043.085-.082.085h-6.539zm9.93 2.895c0 .703-1.903 1.656-4.965 1.656-3.063 0-4.965-.953-4.965-1.656v-.414h6.54c.495 0 .91-.41.91-.91v-8.11a.919.919 0 0 0-.91-.91h-6.54v-.828c0-.477.875-1.067 2.395-1.399a.324.324 0 0 0 .171-.008c1.489-.289 3.309-.289 4.801 0h.082c.012 0 .024 0 .04-.003 1.546.332 2.44.93 2.44 1.41zm0 0M7.2 14.484h-.786v-1.656c0-.25-.164-.414-.414-.414H4.758V3.31h.207c.332 0 .578-.207.664-.536L5.957.785A.815.815 0 0 0 5.793.25.585.585 0 0 0 5.297 0H3.395a.632.632 0 0 0-.497.25.818.818 0 0 0-.168.535l.333 1.988c.039.29.332.536.66.536h.207v9.105H2.69c-.25 0-.414.164-.414.414v1.656h-.87c-.083 0-.247.04-.29.121a.77.77 0 0 0-.082.332l.95 7.782C2.108 23.46 2.69 24 3.433 24H5.34c.742 0 1.363-.54 1.363-1.281l.871-7.782a.324.324 0 0 0-.086-.332c-.039-.082-.164-.12-.289-.12zM3.601.828H5.09L4.8 2.484h-.952zm-.5 12.414h2.484v1.242H3.102zm2.855 9.39a.622.622 0 0 1-.617.54H3.434a.626.626 0 0 1-.622-.54l-.91-7.323h4.883zm0 0"/>
</svg>
